Icons/com_facebook_katana.svg

<svg viewBox="0 0 48 48" xmlns:xlink="http://www.w3.org/1999/xlink">
 <defs>
  <linearGradient id="0">
   <stop stop-opacity="0"/>
   <stop offset="1"/>
  </linearGradient>
  <linearGradient xlink:href="#0" id="1" gradientUnits="userSpaceOnUse" gradientTransform="translate(4e-7,-48)" y1="47" x2="0" y2="1"/>
  <clipPath id="2">
   <g transform="translate(0,-1004.3622)">
    <rect rx="4" y="1005.36" x="1" height="46" width="46" fill="#1890d0"/>
   </g>
  </clipPath>
  <clipPath id="3">
   <g transform="translate(0,-1004.3622)">
    <rect rx="4" y="1005.36" x="1" height="46" width="46" fill="#1890d0"/>
   </g>
  </clipPath>
 </defs>
 <g>
  <g transform="translate(0,-1004.3622)">
   <path d="m 5,1006.3622 c -2.216,0 -4,1.784 -4,4 l 0,37.25 c 0,2.216 1.784,4 4,4 l 38,0 c 2.216,0 4,-1.784 4,-4 l 0,-37.25 c 0,-2.216 -1.784,-4 -4,-4 l -38,0 z m -4,41.5 0,0.5 c 0,2.216 1.784,4 4,4 l 38,0 c 2.216,0 4,-1.784 4,-4 l 0,-0.5 c 0,2.216 -1.784,4 -4,4 l -38,0 c -2.216,0 -4,-1.784 -4,-4 z" opacity="0.02"/>
   <path d="m 1,1047.6122 0,0.25 c 0,2.216 1.784,4 4,4 l 38,0 c 2.216,0 4,-1.784 4,-4 l 0,-0.25 c 0,2.216 -1.784,4 -4,4 l -38,0 c -2.216,0 -4,-1.784 -4,-4 z" opacity="0.05"/>
   <rect width="46" height="46" x="1" y="1005.61" rx="4" opacity="0.1"/>
  </g>
 </g>
 <g>
  <g transform="translate(0,-1004.3622)">
   <rect rx="4" y="1005.36" x="1" height="46" width="46" fill="#3a569c"/>
  </g>
 </g>
 <g>
  <rect transform="scale(1,-1)" width="46" height="46" x="1" y="-46.998" rx="4" opacity="0.1" fill="url(#1)"/>
 </g>
 <g>
  <g clip-path="url(#2)">
   <g opacity="0.1">
    <g>
     <path d="M 17 19 L 20 19 L 20 17 C 20 15.441406 20.222656 14.367188 20.585938 13.597656 C 20.964844 12.832031 21.644531 12.210938 22.632812 11.730469 C 23.636719 11.246094 24.894531 11 26.417969 11 C 27.976562 11 29.613281 11.402344 31 12 L 30 15 C 29.128906 14.8125 28.546875 14.765625 27.742188 14.765625 C 26.949219 14.765625 26.378906 14.933594 26.027344 15.273438 C 25.6875 15.597656 25 16.058594 25 17 L 25 19 L 30 19 L 30 22 L 25 22 L 25 37 L 20.039062 37 L 20 22 L 17 22 "/>
    </g>
   </g>
  </g>
 </g>
 <g>
  <g clip-path="url(#3)">
   <g transform="translate(0,-1)">
    <g>
     <path d="M 17 19 L 20 19 L 20 17 C 20 15.441406 20.222656 14.367188 20.585938 13.597656 C 20.964844 12.832031 21.644531 12.210938 22.632812 11.730469 C 23.636719 11.246094 24.894531 11 26.417969 11 C 27.976562 11 29.613281 11.402344 31 12 L 30 15 C 29.128906 14.8125 28.546875 14.765625 27.742188 14.765625 C 26.949219 14.765625 26.378906 14.933594 26.027344 15.273438 C 25.6875 15.597656 25 16.058594 25 17 L 25 19 L 30 19 L 30 22 L 25 22 L 25 37 L 20.039062 37 L 20 22 L 17 22 " fill="#f9f9f9"/>
    </g>
   </g>
  </g>
 </g>
 <g>
  <g transform="translate(0,-1004.3622)">
   <path d="m 1,1043.3622 0,4 c 0,2.216 1.784,4 4,4 l 38,0 c 2.216,0 4,-1.784 4,-4 l 0,-4 c 0,2.216 -1.784,4 -4,4 l -38,0 c -2.216,0 -4,-1.784 -4,-4 z" opacity="0.1"/>
  </g>
 </g>
</svg>

<svg viewBox="0 0 48 48"><defs><linearGradient id="linearGradient3764" x1="1" x2="47" gradientUnits="userSpaceOnUse" gradientTransform="translate(-48.000001,0.00221467)"><stop stop-color="#344e8e" stop-opacity="1"/><stop offset="1" stop-color="#3a569c" stop-opacity="1"/></linearGradient><clipPath id="clipPath-329532645"><g transform="translate(0,-1004.3622)"><rect rx="4" y="1005.36" x="1" height="46" width="46" fill="#1890d0"/></g></clipPath><clipPath id="clipPath-357100646"><g transform="translate(0,-1004.3622)"><rect rx="4" y="1005.36" x="1" height="46" width="46" fill="#1890d0"/></g></clipPath></defs><g><path d="m 1 43 l 0 0.25 c 0 2.216 1.784 4 4 4 l 38 0 c 2.216 0 4 -1.784 4 -4 l 0 -0.25 c 0 2.216 -1.784 4 -4 4 l -38 0 c -2.216 0 -4 -1.784 -4 -4 z m 0 0.5 l 0 0.5 c 0 2.216 1.784 4 4 4 l 38 0 c 2.216 0 4 -1.784 4 -4 l 0 -0.5 c 0 2.216 -1.784 4 -4 4 l -38 0 c -2.216 0 -4 -1.784 -4 -4 z" opacity="0.02"/><path d="m 1 43.25 l 0 0.25 c 0 2.216 1.784 4 4 4 l 38 0 c 2.216 0 4 -1.784 4 -4 l 0 -0.25 c 0 2.216 -1.784 4 -4 4 l -38 0 c -2.216 0 -4 -1.784 -4 -4 z" opacity="0.05"/><path d="m 1 43 l 0 0.25 c 0 2.216 1.784 4 4 4 l 38 0 c 2.216 0 4 -1.784 4 -4 l 0 -0.25 c 0 2.216 -1.784 4 -4 4 l -38 0 c -2.216 0 -4 -1.784 -4 -4 z" opacity="0.1"/></g><g><rect width="46" height="46" x="-47" y="1" rx="4" transform="matrix(0,-1,1,0,0,0)" fill="url(#linearGradient3764)" fill-opacity="1"/></g><g><g clip-path="url(#clipPath-329532645)"><g opacity="0.1"><!-- color: #3a569c --><g><path d="m 17 19 l 3 0 l 0 -2 c 0 -1.559 0.223 -2.633 0.586 -3.402 c 0.379 -0.766 1.059 -1.387 2.047 -1.867 c 1 -0.484 2.262 -0.73 3.785 -0.73 c 1.559 0 3.195 0.402 4.582 1 l -1 3 c -0.871 -0.188 -1.453 -0.234 -2.258 -0.234 c -0.793 0 -1.363 0.168 -1.715 0.508 c -0.34 0.324 -1.027 0.785 -1.027 1.727 l 0 2 l 5 0 l 0 3 l -5 0 l 0 15 l -4.961 0 l -0.039 -15 l -3 0" fill="#000"/></g></g></g></g><g><g clip-path="url(#clipPath-357100646)"><g transform="translate(0,-1)"><!-- color: #3a569c --><g><path d="m 17 19 l 3 0 l 0 -2 c 0 -1.559 0.223 -2.633 0.586 -3.402 c 0.379 -0.766 1.059 -1.387 2.047 -1.867 c 1 -0.484 2.262 -0.73 3.785 -0.73 c 1.559 0 3.195 0.402 4.582 1 l -1 3 c -0.871 -0.188 -1.453 -0.234 -2.258 -0.234 c -0.793 0 -1.363 0.168 -1.715 0.508 c -0.34 0.324 -1.027 0.785 -1.027 1.727 l 0 2 l 5 0 l 0 3 l -5 0 l 0 15 l -4.961 0 l -0.039 -15 l -3 0" fill="#f9f9f9"/></g></g></g></g><g><g transform="translate(0,-1004.3622)"><path d="m 1 1043.36 0 4 c 0 2.216 1.784 4 4 4 l 38 0 c 2.216 0 4 -1.784 4 -4 l 0 -4 c 0 2.216 -1.784 4 -4 4 l -38 0 c -2.216 0 -4 -1.784 -4 -4 z" opacity="0.1"/></g></g></svg>
